src/img/icons/alert-warning.svg

<svg xmlns="http://www.w3.org/2000/svg" viewBox="0 0 32 32">
  <path fill="currentColor" d="M16 22.5c-.4 0-.7.1-.9.4-.2.2-.4.5-.4.9s.1.7.4.9c.2.2.5.4.9.4s.7-.1.9-.4c.2-.2.4-.5.4-.9s-.1-.7-.4-.9c-.3-.3-.5-.4-.9-.4Zm13.8 4.2L17 4.6c-.1-.2-.3-.3-.4-.4-.2-.2-.4-.2-.6-.2-.2 0-.4 0-.6.1-.2.1-.3.2-.4.4L2.2 26.7c-.2.2-.2.4-.2.6 0 .2.1.4.2.5.1.2.2.3.4.4.2.1.4.2.6.2h25.7c.2 0 .4-.1.6-.2.2-.1.3-.2.4-.4.1-.2.2-.3.2-.5-.1-.2-.1-.4-.3-.6Zm-25.4-.1L16 6.5l11.6 20.1H4.4Zm10.9-13.9c-.2.2-.3.4-.3.7v6c0 .3.1.5.3.7.2.2.4.3.7.3.3 0 .5-.1.7-.3.2-.2.3-.4.3-.7v-6c0-.3-.1-.5-.3-.7-.2-.2-.4-.3-.7-.3-.3.1-.5.1-.7.3Z"/>
</svg>

<svg width="32" height="32" viewBox="0 0 32 32" fill="none" xmlns="http://www.w3.org/2000/svg">
<path d="M16 22.5C15.6 22.5 15.3 22.6 15.1 22.9C14.9 23.1 14.7 23.4 14.7 23.8C14.7 24.2 14.8 24.5 15.1 24.7C15.3 24.9 15.6 25.1 16 25.1C16.4 25.1 16.7 25 16.9 24.7C17.1 24.5 17.3 24.2 17.3 23.8C17.3 23.4 17.2 23.1 16.9 22.9C16.6 22.6 16.4 22.5 16 22.5ZM29.8 26.7L17 4.6C16.9 4.4 16.7 4.3 16.6 4.2C16.4 4 16.2 4 16 4C15.8 4 15.6 4 15.4 4.1C15.2 4.2 15.1 4.3 15 4.5L2.2 26.7C2 26.9 2 27.1 2 27.3C2 27.5 2.1 27.7 2.2 27.8C2.3 28 2.4 28.1 2.6 28.2C2.8 28.3 3 28.4 3.2 28.4H28.9C29.1 28.4 29.3 28.3 29.5 28.2C29.7 28.1 29.8 28 29.9 27.8C30 27.6 30.1 27.5 30.1 27.3C30 27.1 30 26.9 29.8 26.7ZM4.4 26.6L16 6.5L27.6 26.6H4.4ZM15.3 12.7C15.1 12.9 15 13.1 15 13.4V19.4C15 19.7 15.1 19.9 15.3 20.1C15.5 20.3 15.7 20.4 16 20.4C16.3 20.4 16.5 20.3 16.7 20.1C16.9 19.9 17 19.7 17 19.4V13.4C17 13.1 16.9 12.9 16.7 12.7C16.5 12.5 16.3 12.4 16 12.4C15.7 12.5 15.5 12.5 15.3 12.7Z" fill="#131212"/>
</svg>
